src/mainscreen/static/mainscreen/presentation/shared-ro/images/sprite-icons-messages.svg

<?xml version="1.0" encoding="UTF-8" standalone="no"?>
<!-- Generator: Adobe Illustrator 20.0.0, SVG Export Plug-In . SVG Version: 6.00 Build 0)  -->

<svg
   xmlns:dc="http://purl.org/dc/elements/1.1/"
   xmlns:cc="http://creativecommons.org/ns#"
   xmlns:rdf="http://www.w3.org/1999/02/22-rdf-syntax-ns#"
   xmlns:svg="http://www.w3.org/2000/svg"
   xmlns="http://www.w3.org/2000/svg"
   xmlns:sodipodi="http://sodipodi.sourceforge.net/DTD/sodipodi-0.dtd"
   xmlns:inkscape="http://www.inkscape.org/namespaces/inkscape"
   version="1.1"
   id="Laag_1"
   x="0px"
   y="0px"
   width="65"
   height="21"
   viewBox="0 0 65 21"
   xml:space="preserve"
   inkscape:version="0.91 r13725"
   sodipodi:docname="sprite-icons-messages.svg"><metadata
     id="metadata4316"><rdf:RDF><cc:Work
         rdf:about=""><dc:format>image/svg+xml</dc:format><dc:type
           rdf:resource="http://purl.org/dc/dcmitype/StillImage" /><dc:title></dc:title></cc:Work></rdf:RDF></metadata><defs
     id="defs4314" /><sodipodi:namedview
     pagecolor="#ffffff"
     bordercolor="#666666"
     borderopacity="1"
     objecttolerance="10"
     gridtolerance="10"
     guidetolerance="10"
     inkscape:pageopacity="0"
     inkscape:pageshadow="2"
     inkscape:window-width="1920"
     inkscape:window-height="1052"
     id="namedview4312"
     showgrid="false"
     inkscape:zoom="3.7134705"
     inkscape:cx="125.3651"
     inkscape:cy="1.8760311"
     inkscape:window-x="0"
     inkscape:window-y="0"
     inkscape:window-maximized="1"
     inkscape:current-layer="Laag_1" /><style
     type="text/css"
     id="style4290">
	.st0{fill:#FFFFFF;}
	.st1{fill:#CC0033;}
	.st2{fill:#FFCC33;}
	.st3{fill:#669933;}
</style><g
     id="g4292"><rect
       x="4.5"
       y="2.0999999"
       class="st0"
       width="12"
       height="15.4"
       id="rect4294"
       style="fill:#ffffff" /><path
       class="st1"
       d="M 0,0 0,21 21,21 21,0 0,0 Z m 11.9,15.7 -3,0 0,-2 3.1,0 0,2 -0.1,0 z m 0,-3.8 -3,0 0,-6.6 3.1,0 0,6.6 -0.1,0 z"
       id="path4296"
       inkscape:connector-curvature="0"
       style="fill:#cc0033" /></g><polygon
     class="st0"
     points="861,-49.7 862,-49.7 862,-49.7 "
     id="polygon4298"
     style="fill:#ffffff" /><g
     id="g4300"
     transform="translate(-959,0)"><rect
       x="985.5"
       y="2.0999999"
       width="12"
       height="15.4"
       id="rect4302" /><path
       class="st2"
       d="m 981,0 0,21 21,0 0,-21 -21,0 z m 11.9,15.7 -3.1,0 0,-2 3.1,0 0,2 z m 0,-3.8 -3.1,0 0,-6.6 3.1,0 0,6.6 z"
       id="path4304"
       inkscape:connector-curvature="0"
       style="fill:#ffcc33" /></g><g
     id="g4306"
     transform="translate(-1956,0)"><rect
       x="2004.5"
       y="2.0999999"
       class="st0"
       width="12"
       height="15.4"
       id="rect4308"
       style="fill:#ffffff" /><path
       class="st3"
       d="m 2000,0 0,21 21,0 0,-21 -21,0 z m 11.9,15.7 -3.1,0 0,-2 3.1,0 0,2 z m 0,-3.8 -3.1,0 0,-6.6 3.1,0 0,6.6 z"
       id="path4310"
       inkscape:connector-curvature="0"
       style="fill:#669933" /></g></svg>

<?xml version="1.0" encoding="utf-8"?>
<!-- Generator: Adobe Illustrator 20.0.0, SVG Export Plug-In . SVG Version: 6.00 Build 0)  -->
<svg version="1.1" id="Laag_1" xmlns="http://www.w3.org/2000/svg" xmlns:xlink="http://www.w3.org/1999/xlink" x="0px" y="0px"
	 width="2021px" height="21px" viewBox="0 0 2021 21" style="enable-background:new 0 0 2021 21;" xml:space="preserve">
<style type="text/css">
	.st0{fill:#FFFFFF;}
	.st1{fill:#CC0033;}
	.st2{fill:#FFCC33;}
	.st3{fill:#669933;}
</style>
<g>
	<rect x="4.5" y="2.1" class="st0" width="12" height="15.4"/>
	<path class="st1" d="M0,0v21h21V0H0z M11.9,15.7h-3v-2H12v2H11.9z M11.9,11.9h-3V5.3H12v6.6H11.9z"/>
</g>
<polygon class="st0" points="861,-49.7 862,-49.7 862,-49.7 "/>
<g>
	<rect x="985.5" y="2.1" width="12" height="15.4"/>
	<path class="st2" d="M981,0v21h21V0H981z M992.9,15.7h-3.1v-2h3.1V15.7z M992.9,11.9h-3.1V5.3h3.1V11.9z"/>
</g>
<g>
	<rect x="2004.5" y="2.1" class="st0" width="12" height="15.4"/>
	<path class="st3" d="M2000,0v21h21V0H2000z M2011.9,15.7h-3.1v-2h3.1V15.7z M2011.9,11.9h-3.1V5.3h3.1V11.9z"/>
</g>
</svg>
